X:247
T:Reel 247
M:4/4
K:Amix
L:1/8
ED|C<A,A,G, E,A,A,B,|CA,A,B, F2ED|CB,A,G,  (3B,A,G, A,B,|DB,G,B, D2ED|CB,CD EFGD|CB,CD EAAF|GBAF GFED|CA,B,G, E,A,A,2|EAAG EFGA|BAGB AGED|EAAG E2FA|G<BAF GFED|EAAG AGEG|BGAG AGED|EFGA BGAG|EDEC D2|
